svg/media/volume_line.svg

<?xml version="1.0" encoding="UTF-8"?>
<svg width="24px" height="24px" viewBox="0 0 24 24" version="1.1" xmlns="http://www.w3.org/2000/svg" xmlns:xlink="http://www.w3.org/1999/xlink">
    <title>volume_line</title>
    <g id="页面-1" stroke="none" stroke-width="1" fill="none" fill-rule="evenodd">
        <g id="Media" transform="translate(-1344.000000, 0.000000)">
            <g id="volume_line" transform="translate(1344.000000, 0.000000)">
                 <path d="M24,0 L24,24 L0,24 L0,0 L24,0 Z M12.5934901,23.257841 L12.5819402,23.2595131 L12.5108777,23.2950439 L12.4918791,23.2987469 L12.4918791,23.2987469 L12.4767152,23.2950439 L12.4056548,23.2595131 C12.3958229,23.2563662 12.3870493,23.2590235 12.3821421,23.2649074 L12.3780323,23.275831 L12.360941,23.7031097 L12.3658947,23.7234994 L12.3769048,23.7357139 L12.4804777,23.8096931 L12.4953491,23.8136134 L12.4953491,23.8136134 L12.5071152,23.8096931 L12.6106902,23.7357139 L12.6232938,23.7196733 L12.6232938,23.7196733 L12.6266527,23.7031097 L12.609561,23.275831 C12.6075724,23.2657013 12.6010112,23.2592993 12.5934901,23.257841 L12.5934901,23.257841 Z M12.8583906,23.1452862 L12.8445485,23.1473072 L12.6598443,23.2396597 L12.6498822,23.2499052 L12.6498822,23.2499052 L12.6471943,23.2611114 L12.6650943,23.6906389 L12.6699349,23.7034178 L12.6699349,23.7034178 L12.678386,23.7104931 L12.8793402,23.8032389 C12.8914285,23.8068999 12.9022333,23.8029875 12.9078286,23.7952264 L12.9118235,23.7811639 L12.8776777,23.1665331 C12.8752882,23.1545897 12.8674102,23.1470016 12.8583906,23.1452862 L12.8583906,23.1452862 Z M12.1430473,23.1473072 C12.1332178,23.1423925 12.1221763,23.1452606 12.1156365,23.1525954 L12.1099173,23.1665331 L12.0757714,23.7811639 C12.0751323,23.7926639 12.0828099,23.8018602 12.0926481,23.8045676 L12.108256,23.8032389 L12.3092106,23.7104931 L12.3186497,23.7024347 L12.3186497,23.7024347 L12.3225043,23.6906389 L12.340401,23.2611114 L12.337245,23.2485176 L12.337245,23.2485176 L12.3277531,23.2396597 L12.1430473,23.1473072 Z" id="MingCute" fill-rule="nonzero"></path>
                <path d="M15,4.19422 L15,19.8056 C15,20.7003 13.9887,21.2207 13.2606,20.7007 L6.67953,15.9999 L4,15.9999 C2.89543,15.9999 2,15.1045 2,13.9999 L2,9.99991 C2,8.89534 2.89543,7.99991 4,7.99991 L6.67953,7.99991 L13.2606,3.29912 C13.9887,2.77908 15,3.29952 15,4.19422 Z M13,5.94309 L7.84201,9.62737 C7.50281,9.86966 7.09638,9.99991 6.67953,9.99991 L4,9.99991 L4,13.9999 L6.67953,13.9999 C7.09638,13.9999 7.50281,14.1302 7.84201,14.3724 L13,18.0567 L13,5.94309 Z M18.2549,6.86093 C18.6232,6.4494 19.2554,6.41438 19.6669,6.78271 C21.0974,8.06302 21.9999957,9.92679 21.9999957,12.0001 C21.9999957,14.0733 21.0974,15.9371 19.6669,17.2174 C19.2554,17.5857 18.6232,17.5507 18.2549,17.1392 C17.8865,16.7277 17.9216,16.0955 18.3331,15.7271 C19.3576,14.8102 19.9999957,13.4808 19.9999957,12.0001 C19.9999957,10.5193 19.3576,9.18994 18.3331,8.27298 C17.9216,7.90465 17.8865,7.27245 18.2549,6.86093 Z M17.6669,9.01879 C18.4837,9.74979 18.9999957,10.8153 18.9999957,12 C18.9999957,13.1848 18.4837,14.2503 17.6669,14.9813 C17.2554,15.3496 16.6232,15.3146 16.2549,14.9031 C15.9148385,14.5231615 15.9185876,13.9552562 16.2448325,13.5804564 L16.3331,13.491 C16.7439,13.1234 16.9999957,12.5923 16.9999957,12 C16.9999957,11.46702 16.7925582,10.983531 16.4515975,10.6241826 L16.3331,10.5091 C15.9216,10.1407 15.8865,9.50854 16.2549,9.09701 C16.6232,8.68548 17.2554,8.65046 17.6669,9.01879 Z" id="形状" fill="#09244B"></path>
            </g>
        </g>
    </g>
</svg>

<svg xmlns="http://www.w3.org/2000/svg" width="24" height="24"><g fill="none" fill-rule="evenodd"><path d="M24 0v24H0V0h24ZM12.593 23.258l-.011.002-.071.035-.02.004-.014-.004-.071-.035c-.01-.004-.019-.001-.024.005l-.004.01-.017.428.005.02.01.013.104.074.015.004.012-.004.104-.074.012-.016.004-.017-.017-.427c-.002-.01-.009-.017-.017-.018Zm.265-.113-.013.002-.185.093-.01.01-.003.011.018.43.005.012.008.007.201.093c.012.004.023 0 .029-.008l.004-.014-.034-.614c-.003-.012-.01-.02-.02-.022Zm-.715.002a.023.023 0 0 0-.027.006l-.006.014-.034.614c0 .012.007.02.017.024l.015-.002.201-.093.01-.008.004-.011.017-.43-.003-.012-.01-.01-.184-.092Z"/><path fill="#09244B" d="M15 4.194v15.612a1.1 1.1 0 0 1-1.74.895L6.68 16H4a2 2 0 0 1-2-2v-4a2 2 0 0 1 2-2h2.68l6.58-4.7a1.1 1.1 0 0 1 1.74.894Zm-2 1.75L7.842 9.626A2 2 0 0 1 6.68 10H4v4h2.68a2 2 0 0 1 1.162.372L13 18.057V5.943Zm5.255.917a1 1 0 0 1 1.412-.078A6.985 6.985 0 0 1 22 12a6.985 6.985 0 0 1-2.333 5.217 1 1 0 1 1-1.334-1.49A4.985 4.985 0 0 0 20 12c0-1.48-.642-2.81-1.667-3.727a1 1 0 0 1-.078-1.412Zm-.588 2.158A3.992 3.992 0 0 1 19 12c0 1.185-.516 2.25-1.333 2.981a1 1 0 0 1-1.422-1.4l.088-.09c.41-.368.667-.899.667-1.491a1.99 1.99 0 0 0-.548-1.376l-.119-.115a1 1 0 0 1 1.334-1.49Z"/></g></svg>
